packages/icons/src/letter-case-toggle.svg

<svg width="15" height="15" viewBox="0 0 15 15" fill="none" xmlns="http://www.w3.org/2000/svg">
  <path
    fill-rule="evenodd"
    clip-rule="evenodd"
    d="M11.2895 2.75C11.4964 2.74979 11.6821 2.87701 11.7565 3.07003L14.9664 11.39C15.0657 11.6477 14.9375 11.9371 14.6798 12.0365C14.4222 12.1359 14.1328 12.0076 14.0334 11.75L12.9822 9.02537H9.61106L8.56672 11.749C8.46786 12.0068 8.1787 12.1357 7.92086 12.0369C7.66302 11.938 7.53415 11.6488 7.63301 11.391L10.8232 3.07099C10.8972 2.87782 11.0826 2.75021 11.2895 2.75ZM11.2915 4.64284L12.6543 8.17537H9.93698L11.2915 4.64284ZM2.89895 5.20703C1.25818 5.20703 0.00915527 6.68569 0.00915527 8.60972C0.00915527 10.6337 1.35818 12.0124 2.89895 12.0124C3.72141 12.0124 4.57438 11.6692 5.15427 11.0219V11.53C5.15427 11.7785 5.35574 11.98 5.60427 11.98C5.8528 11.98 6.05427 11.7785 6.05427 11.53V5.72C6.05427 5.47147 5.8528 5.27 5.60427 5.27C5.35574 5.27 5.15427 5.47147 5.15427 5.72V6.22317C4.60543 5.60095 3.79236 5.20703 2.89895 5.20703ZM5.15427 9.79823V7.30195C4.76393 6.58101 3.94144 6.05757 3.08675 6.05757C2.10885 6.05757 1.03503 6.96581 1.03503 8.60955C1.03503 10.1533 2.00885 11.1615 3.08675 11.1615C3.97011 11.1615 4.77195 10.4952 5.15427 9.79823Z"
    fill="currentColor"
  />
</svg>

<svg xmlns="http://www.w3.org/2000/svg" width="15" height="15" fill="none"><path fill="currentColor" fill-rule="evenodd" d="M11.29 2.75a.5.5 0 0 1 .467.32l3.21 8.32a.5.5 0 0 1-.934.36l-1.05-2.725H9.61L8.567 11.75a.5.5 0 0 1-.934-.358l3.19-8.32a.5.5 0 0 1 .466-.321m.002 1.893 1.362 3.532H9.937zm-8.393.564c-1.64 0-2.89 1.479-2.89 3.403 0 2.024 1.35 3.402 2.89 3.402a3.06 3.06 0 0 0 2.255-.99v.508a.45.45 0 0 0 .9 0V5.72a.45.45 0 1 0-.9 0v.503A3 3 0 0 0 2.9 5.207m2.255 4.591V7.302c-.39-.721-1.213-1.244-2.067-1.244-.978 0-2.052.908-2.052 2.552 0 1.543.974 2.552 2.052 2.552.883 0 1.685-.667 2.067-1.364" clip-rule="evenodd"/></svg>
